X: 24667
T: MacKay From Skye
R: reel
M: 4/4
K: Amixolydian
|:c2e>c A>AA>B|c2e>c e>fa>e|c2e>c A>AA>c|B2G>B g>ed>B:|
|:A2a>g a2e>g|a2e>c A2e>c|A2a>g a2e>f|g2d>B G2d>B:|
|:e2A>B A>AA>c|e2A>c e>fa>f|e2A>B A>AA>c|B2G>B g>ed>B:|
|:a2e>c e>fa>e|c2A>c a>fe>c|1 a2e>c e>fg>d|B2G>B g>ed>B:|2 a>ee>a g>efd|B2G>B g>ed>B||

